icons/linear-ele-drink-hot-water.svg

<svg xmlns="http://www.w3.org/2000/svg" width="32px" height="32px" viewBox="0 0 32 32" version="1.1">
    <title>linear-ele-drink-hot-water</title>
    <g id="linear-ele-drink-hot-water" stroke-width="1" fill-rule="evenodd">
        <path d="M25,11 C25.5522847,11 26,11.4477153 26,12 L26,18 C26,22.418278 22.418278,26 18,26 L14,26 C9.581722,26 6,22.418278 6,18 L6,12 C6,11.4477153 6.44771525,11 7,11 L25,11 Z M24,17 L8,17 L8,18 C8,21.2383969 10.5655749,23.8775718 13.7750617,23.9958615 L14,24 L18,24 C21.3137085,24 24,21.3137085 24,18 L24,17 Z M24,13 L8,13 L8,15 L24,15 L24,13 Z M16,1 C16.5522847,1 17,1.44771525 17,2 L17,8 C17,8.55228475 16.5522847,9 16,9 C15.4477153,9 15,8.55228475 15,8 L15,2 C15,1.44771525 15.4477153,1 16,1 Z M11,3 C11.5522847,3 12,3.44771525 12,4 L12,8 C12,8.55228475 11.5522847,9 11,9 C10.4477153,9 10,8.55228475 10,8 L10,4 C10,3.44771525 10.4477153,3 11,3 Z M21,3 C21.5522847,3 22,3.44771525 22,4 L22,8 C22,8.55228475 21.5522847,9 21,9 C20.4477153,9 20,8.55228475 20,8 L20,4 C20,3.44771525 20.4477153,3 21,3 Z M27,28 C27.5522847,28 28,28.4477153 28,29 C28,29.5522847 27.5522847,30 27,30 L5,30 C4.44771525,30 4,29.5522847 4,29 C4,28.4477153 4.44771525,28 5,28 L27,28 Z" id="&#24418;&#29366;" fill-rule="nonzero" />
    </g>
</svg>

<svg xmlns="http://www.w3.org/2000/svg" viewBox="0 0 32 32"><path fill="currentColor" d="M25 11a1 1 0 0 1 1 1v6a8 8 0 0 1-8 8h-4a8 8 0 0 1-8-8v-6a1 1 0 0 1 1-1zm-1 6H8v1a6 6 0 0 0 5.775 5.996L14 24h4a6 6 0 0 0 6-6zm0-4H8v2h16zM16 1a1 1 0 0 1 1 1v6a1 1 0 0 1-2 0V2a1 1 0 0 1 1-1m-5 2a1 1 0 0 1 1 1v4a1 1 0 0 1-2 0V4a1 1 0 0 1 1-1m10 0a1 1 0 0 1 1 1v4a1 1 0 0 1-2 0V4a1 1 0 0 1 1-1m6 25a1 1 0 0 1 0 2H5a1 1 0 0 1 0-2z"/></svg>
